X: 23990
T: Lodge Road, The
R: barndance
M: 4/4
K: Dmajor
c/B>A|d2 d>f e>dc>B|A2- A>B A2 F>E|D>FA>F D>FA>F|(3GAG (3FGF E2 (3ABc|
d2 d>f e>dc>B|A2 A>B A2 F2|D>FA>F G>EC>E|DD/E/ D>C D2||
(3ABc|d2 d>f e>dc>B|A2 A>B A2 (3GFE|D>FA>F D>F (3AFD|(3GAG (3FGF E2 (3ABc|
d2 d>f e>dc>B|A2- A>B A2 F>E|D>FA>F G2 C<E|D2 D2 D2||
A2|d>ef>g a>gf>e|d>ef>g a2- a>f|g<ee>g f<dd>f|e>dc>B A>B (3cBA|
[f2a2] [f2a2] [g2b2] [g2b2]|[e2g2] [e2g2] [f2a2] f>e|d>fa>f d>fa>f|(3gag (3fgf e4|
[f2a2] [f2a2] [g2b2] [g2b2]|[e2g2] [e2g2] [f2a2] f>e|d>fa>f b>ge>c|dd/c/ d>e d2||
A2|d>ef>g a>gf>e|d>ef>g a2 a>f|g<ee>g f<dd>f|e>dc>B A>B (3cBA|
f2 (3fga g2 g>f|e2 e>g f2 f>e|d>fa>f d>fa>f|(3gag (3fgf e4|
[f2a2] [f2a2] [g2b2] [g2b2]|[e2g2] [e2g2] [f2a2] f>e|d>fa>f b>ge>c|d2 d>e d3/2||

